icon-svg/rooms-nursery.svg

<?xml version="1.0" encoding="UTF-8"?>
<svg width="32px" height="32px" viewBox="0 0 32 32" fill="#44739e" version="1.1" xmlns="http://www.w3.org/2000/svg" xmlns:xlink="http://www.w3.org/1999/xlink">
            <path d="M16.7732885,14.9968619 C15.7936498,14.9968619 14.9959441,14.1983076 14.9959441,13.2168554 L14.9959441,12.9949793 L18.5496333,12.9949793 L18.5496333,13.2168554 C18.5496333,14.1983076 17.7529271,14.9968619 16.7732885,14.9968619 Z M26.2673933,21.5026266 C26.6402557,21.0958537 27.274022,21.0718671 27.6798723,21.4486568 C28.0847229,21.8234476 28.1087141,22.4580933 27.7328527,22.8628674 C24.7149659,26.1280449 20.4395429,28 16.0041789,28 C11.5688149,28 7.29339196,26.1280449 4.27550513,22.8628674 C3.89964377,22.4580933 3.92363492,21.8234476 4.32848559,21.4486568 C4.73333626,21.0718671 5.36610286,21.0958537 5.74096458,21.5026266 C5.83193103,21.6015714 5.93489305,21.6875234 6.02885839,21.7824704 L8.92479021,13.8189154 C5.4920564,14.8323498 2.52914929,10.9615104 4.7923145,8.64480346 C6.09083553,7.31454597 4.76632409,5.98728681 4.11556413,5.35364049 C3.92363492,5.16574537 4.00160616,4.8369289 4.25751177,4.75197632 C11.6367899,2.31233805 14.2268345,6.36607538 14.5946988,8.97961658 C14.7426443,10.0370264 14.2638209,11.4292493 14.0049164,12.0449056 L13.1552298,14.2027012 C13.5950675,15.8028081 15.0465322,16.9881465 16.7818921,16.9881465 C18.7931502,16.9881465 20.4265477,15.4010323 20.5365071,13.4151408 C20.9473556,13.6110315 21.3182188,13.8768831 21.6470975,14.1867101 C22.8726454,14.2386811 24.1121882,13.8079216 25.050842,12.8674465 C25.7056005,12.2118125 26.1174486,11.408261 26.2893852,10.5657313 C26.4403295,9.82214631 27.5209309,9.77617197 27.7668402,10.492772 C28.4375928,12.4576752 27.4889427,13.9828239 27.0790939,14.5185249 C26.9841289,14.6414563 26.8821665,14.7533938 26.7682085,14.8583353 C25.7135975,15.8307925 24.3171126,16.2015855 22.9886027,16.0056948 C23.0305872,16.0726575 23.0755706,16.1376212 23.1105577,16.2105805 L25.7905691,21.9653683 L25.7905691,21.9663678 C25.9485109,21.8114543 26.1154493,21.6655357 26.2673933,21.5026266 Z M16.0041789,25.9971179 C18.3393176,25.9971179 20.6184769,25.3934549 22.6437299,24.3000652 C22.4478021,24.1251628 22.2838626,23.9092833 22.1669058,23.6574239 L19.9927077,18.9900291 L11.2989145,18.9900291 L9.55355828,23.793348 C9.48958188,23.967251 9.39861543,24.121165 9.29565341,24.2650847 C11.3369005,25.3834605 13.6430498,25.9971179 16.0041789,25.9971179 Z M8.00712869,9.98105761 C8.55992479,9.98105761 9.00675997,9.53230809 9.00675997,8.97961658 C9.00675997,8.42692508 8.55992479,7.979175 8.00712869,7.979175 C7.4543326,7.979175 7.00749742,8.42692508 7.00749742,8.97961658 C7.00749742,9.53230809 7.4543326,9.98105761 8.00712869,9.98105761 Z"></path>
</svg>

<svg xmlns="http://www.w3.org/2000/svg" fill="#44739e" viewBox="0 0 24 24"><path d="M16.7733 14.9969c-.9797 0-1.7774-.7986-1.7774-1.78v-.222h3.5537v.222c0 .9814-.7967 1.78-1.7763 1.78m9.494 6.5057c.373-.4067 1.0067-.4307 1.4126-.054.4048.3748.4288 1.0095.053 1.4143C24.7149 26.128 20.4395 28 16.0042 28s-8.7108-1.872-11.7287-5.1371c-.3759-.4048-.3519-1.0395.053-1.4142a.9964.9964 0 0 1 1.4125.054c.091.0989.1939.1848.2879.2798l2.8959-7.9636C5.492 14.8323 2.529 10.9615 4.7923 8.6448c1.2985-1.3303-.026-2.6575-.6767-3.2912-.192-.1879-.114-.5167.142-.6016 7.3792-2.4397 9.9692 1.614 10.3371 4.2276.148 1.0574-.3309 2.4496-.5898 3.0653l-.8497 2.1578c.4399 1.6001 1.8913 2.7854 3.6267 2.7854 2.0113 0 3.6446-1.587 3.7546-3.573.4109.196.7817.4618 1.1106.7716 1.2255.052 2.465-.3788 3.4037-1.3193a4.53 4.53 0 0 0 1.2386-2.3017c.151-.7436 1.2315-.7895 1.4774-.073.6708 1.965-.2779 3.4901-.6877 4.0258-.095.123-.197.2349-.3109.3398-1.0546.9725-2.451 1.3433-3.7796 1.1474.042.067.087.132.122.2049l2.68 5.7548v.001c.158-.155.3248-.3009.4768-.4638m-10.2631 4.4945c2.3351 0 4.6143-.6036 6.6395-1.697a1.97 1.97 0 0 1-.4768-.6427L19.9927 18.99H11.299l-1.7453 4.8033c-.064.174-.155.3279-.258.4718 2.0413 1.1184 4.3474 1.732 6.7086 1.732m-7.997-16.016c.5527 0 .9996-.4488.9996-1.0015S8.56 7.9792 8.0072 7.9792s-.9996.4477-.9996 1.0004.4468 1.0015.9996 1.0015"/></svg>
